humanity-icon-theme/Humanity/actions/22/document-open-recent.svg

<?xml version="1.0" encoding="UTF-8" standalone="no"?>
<!-- Created with Inkscape (http://www.inkscape.org/) -->

<svg
   xmlns:svg="http://www.w3.org/2000/svg"
   xmlns="http://www.w3.org/2000/svg"
   xmlns:xlink="http://www.w3.org/1999/xlink"
   version="1.0"
   width="22"
   height="22"
   id="svg4840">
  <defs
     id="defs4842">
    <linearGradient
       id="linearGradient8838">
      <stop
         id="stop8840"
         style="stop-color:#000000;stop-opacity:1"
         offset="0" />
      <stop
         id="stop8842"
         style="stop-color:#000000;stop-opacity:0"
         offset="1" />
    </linearGradient>
    <radialGradient
       cx="62.625"
       cy="4.625"
       r="10.625"
       fx="62.625"
       fy="4.625"
       id="radialGradient5323"
       xlink:href="#linearGradient8838"
       gradientUnits="userSpaceOnUse"
       gradientTransform="matrix(1,0,0,0.341176,0,3.047059)" />
    <linearGradient
       id="linearGradient5354">
      <stop
         id="stop5356"
         style="stop-color:#3f3f3f;stop-opacity:1"
         offset="0" />
      <stop
         id="stop5358"
         style="stop-color:#000000;stop-opacity:1"
         offset="1" />
    </linearGradient>
    <linearGradient
       x1="19.176617"
       y1="13.479795"
       x2="19.176617"
       y2="45.358662"
       id="linearGradient5130"
       xlink:href="#linearGradient5354"
       gradientUnits="userSpaceOnUse"
       gradientTransform="matrix(0.4916775,0,0,0.4916774,0.6986745,-0.3018277)" />
    <linearGradient
       id="linearGradient37935">
      <stop
         id="stop37937"
         style="stop-color:#929292;stop-opacity:1"
         offset="0" />
      <stop
         id="stop37939"
         style="stop-color:#4a4a4a;stop-opacity:1"
         offset="1" />
    </linearGradient>
    <linearGradient
       x1="28.771276"
       y1="12.91806"
       x2="28.771276"
       y2="45.347591"
       id="linearGradient5128"
       xlink:href="#linearGradient37935"
       gradientUnits="userSpaceOnUse"
       gradientTransform="matrix(0.4916775,0,0,0.4916774,0.6986745,-0.3018277)" />
    <linearGradient
       id="linearGradient2145">
      <stop
         id="stop2147"
         style="stop-color:#fffffd;stop-opacity:1"
         offset="0" />
      <stop
         id="stop2149"
         style="stop-color:#cbcbc9;stop-opacity:1"
         offset="1" />
    </linearGradient>
    <radialGradient
       cx="11.901996"
       cy="10.045444"
       r="29.292715"
       fx="11.901996"
       fy="10.045444"
       id="radialGradient5350"
       xlink:href="#linearGradient2145"
       gradientUnits="userSpaceOnUse" />
    <linearGradient
       id="linearGradient7065">
      <stop
         id="stop7067"
         style="stop-color:#ffffff;stop-opacity:1"
         offset="0" />
      <stop
         id="stop7069"
         style="stop-color:#ffffff;stop-opacity:0"
         offset="1" />
    </linearGradient>
    <linearGradient
       x1="78.5"
       y1="16.40625"
       x2="83.03125"
       y2="16.4375"
       id="linearGradient12026"
       xlink:href="#linearGradient7065"
       gradientUnits="userSpaceOnUse"
       gradientTransform="matrix(1.6399715,0,0,1.7710483,-116.65334,9.4899309)" />
    <linearGradient
       id="linearGradient3747">
      <stop
         id="stop3749"
         style="stop-color:#494949;stop-opacity:1"
         offset="0" />
      <stop
         id="stop3751"
         style="stop-color:#888a85;stop-opacity:0"
         offset="1" />
    </linearGradient>
    <linearGradient
       x1="78.3125"
       y1="12.3125"
       x2="83.203491"
       y2="12.09283"
       id="linearGradient12024"
       xlink:href="#linearGradient3747"
       gradientUnits="userSpaceOnUse"
       gradientTransform="matrix(1.6399715,0,0,1.7710483,-116.65334,9.4899309)" />
    <linearGradient
       id="linearGradient7089">
      <stop
         id="stop7091"
         style="stop-color:#eeeeec;stop-opacity:1"
         offset="0" />
      <stop
         id="stop7093"
         style="stop-color:#eeeeec;stop-opacity:0"
         offset="1" />
    </linearGradient>
    <linearGradient
       x1="80.625"
       y1="14.0625"
       x2="83.21875"
       y2="13.875"
       id="linearGradient12022"
       xlink:href="#linearGradient7089"
       gradientUnits="userSpaceOnUse"
       gradientTransform="matrix(1.6399715,0,0,1.7710483,-116.65334,9.4899309)" />
    <linearGradient
       id="linearGradient7101">
      <stop
         id="stop7103"
         style="stop-color:#000000;stop-opacity:1"
         offset="0" />
      <stop
         id="stop7105"
         style="stop-color:#000000;stop-opacity:0"
         offset="1" />
    </linearGradient>
    <linearGradient
       x1="79.25"
       y1="15.75"
       x2="83.625"
       y2="14.78125"
       id="linearGradient12020"
       xlink:href="#linearGradient7101"
       gradientUnits="userSpaceOnUse" />
  </defs>
  <g
     transform="translate(-0.99993396,-1.0000001)"
     id="layer1">
    <path
       d="m 73.25,4.625 a 10.625,3.625 0 1 1 -21.25,0 10.625,3.625 0 1 1 21.25,0 z"
       transform="matrix(1.0823528,0,0,1.2906765,-55.282346,13.351919)"
       id="path2774"
       style="opacity:0.56043958;fill:url(#radialGradient5323);fill-opacity:1;fill-rule:evenodd;stroke:none;stroke-width:0.99999988;marker:none;visibility:visible;display:inline;overflow:visible" />
    <path
       d="m 12.492145,1.4999735 c -5.5190685,0 -9.9921705,4.473101 -9.9921705,9.9921715 0,5.519069 4.473102,10.007882 9.9921705,10.007881 5.519068,0 10.007887,-4.488812 10.007882,-10.007881 0,-5.5190705 -4.488814,-9.9921715 -10.007882,-9.9921715 z"
       id="path2555"
       style="fill:url(#linearGradient5128);fill-opacity:1;stroke:url(#linearGradient5130);stroke-width:0.99994898;stroke-linecap:round;stroke-linejoin:round;stroke-miterlimit:4;stroke-opacity:1;stroke-dasharray:none;stroke-dashoffset:0" />
    <path
       d="m 31.160714,16.910715 a 14.910714,14.910714 0 1 1 -29.8214281,0 14.910714,14.910714 0 1 1 29.8214281,0 z"
       transform="matrix(0.5700599,0,0,0.5700599,3.2365269,1.8598792)"
       id="path35549"
       style="fill:url(#radialGradient5350);fill-opacity:1;fill-rule:evenodd;stroke:none" />
    <path
       d="m 12.5,6.4999999 c 0,-1.3926725 0,-1.5690116 0,-1.5690116"
       id="path2308"
       style="fill:#1f1f1f;fill-opacity:1;fill-rule:evenodd;stroke:#727272;stroke-width:1.00000012;stroke-linecap:round;stroke-linejoin:miter;stroke-miterlimit:4;stroke-opacity:1;stroke-dasharray:none" />
    <path
       d="M 12.194529,11.713855 17.596253,6.3122524"
       id="path2312"
       style="fill:none;stroke:#000000;stroke-width:0.5;stroke-linecap:round;stroke-linejoin:miter;stroke-miterlimit:4;stroke-opacity:1;stroke-dasharray:none" />
    <path
       d="M 13.071561,11.753718 9.4637681,8.1460064"
       id="path2314"
       style="fill:none;stroke:#000000;stroke-width:0.5;stroke-linecap:round;stroke-linejoin:miter;stroke-miterlimit:4;stroke-opacity:1;stroke-dasharray:none" />
    <path
       d="M 12.314125,11.434805 18.465311,9.7866365"
       id="path2316"
       style="fill:#ff0000;fill-rule:evenodd;stroke:#ff0000;stroke-width:0.5;stroke-linecap:round;stroke-linejoin:miter;stroke-miterlimit:4;stroke-opacity:1;stroke-dasharray:none" />
    <path
       d="m 12.5,18.284507 c 0,-1.392673 0,-1.569012 0,-1.569012"
       id="path5368"
       style="fill:#121212;fill-opacity:1;fill-rule:evenodd;stroke:#121212;stroke-width:1.00000012;stroke-linecap:round;stroke-linejoin:miter;stroke-miterlimit:4;stroke-opacity:1;stroke-dasharray:none" />
    <path
       d="m 17.5,11.5 c 1.392673,0 1.569013,0 1.569013,0"
       id="path5370"
       style="fill:#1f1f1f;fill-opacity:1;fill-rule:evenodd;stroke:#1f1f1f;stroke-width:1.00000012;stroke-linecap:round;stroke-linejoin:miter;stroke-miterlimit:4;stroke-opacity:1;stroke-dasharray:none" />
    <path
       d="m 5.7331351,11.5 c 1.3613563,0 1.5337301,0 1.5337301,0"
       id="path5372"
       style="fill:#1f1f1f;fill-opacity:1;fill-rule:evenodd;stroke:#5f5f5f;stroke-width:1.00000012;stroke-linecap:round;stroke-linejoin:miter;stroke-miterlimit:4;stroke-opacity:1;stroke-dasharray:none" />
    <g
       transform="matrix(0.5373686,0,0,0.5340745,2.9655643,-11.862146)"
       id="g12015">
      <path
         d="m 85,9.96875 c -4.313438,0 -8.144379,1.988611 -10.71875,5.0625 L 71.875,12.625 a 0.53130312,0.53130312 0 0 0 -0.90625,0.28125 l -2,10.5 a 0.53130312,0.53130312 0 0 0 0.625,0.625 l 10.5,-2 A 0.53130312,0.53130312 0 0 0 80.375,21.125 l -2.5,-2.5 c 1.634966,-2.162476 4.203208,-3.59375 7.125,-3.59375 0.06101,0 0.66768,-0.0067 1.25,0 0.58232,0.0067 1.231192,0.0319 1.21875,0.03125 a 0.53130312,0.53130312 0 0 0 0.5625,-0.53125 l 0,-4 A 0.53130312,0.53130312 0 0 0 87.53125,10 C 87.247954,9.9895391 85.221832,9.96875 85,9.96875 z"
         transform="matrix(1.6399715,0,0,1.7710483,-116.65334,11.260979)"
         id="path11284"
         style="opacity:0.1;fill:url(#linearGradient12020);fill-opacity:1;fill-rule:evenodd;stroke:none" />
      <path
         d="m 22.744245,28.085938 c -7.15205,0 -13.5330601,3.656917 -17.5784501,9.353349 L 0.60462492,32.513559 -2.6753151,51.109566 14.544385,47.567469 9.8807149,42.531051 c 2.8004201,-4.436903 7.5167801,-9.131968 12.8635301,-9.131968 0.27738,0 3.8261,0.03986 4.09993,0.05535 l 0,-5.313145 c -0.2755,-0.01099 -3.82196,-0.05535 -4.09993,-0.05535 z"
         id="path7007"
         style="fill:url(#linearGradient12022);fill-opacity:1;fill-rule:evenodd;stroke:url(#linearGradient12024);stroke-width:1.86665022;stroke-linecap:round;stroke-linejoin:round;stroke-miterlimit:10;stroke-opacity:1;stroke-dasharray:none;stroke-dashoffset:0.69999992" />
      <path
         d="m 22.744245,29.856986 c -6.6344,0 -12.45264,3.835166 -16.1974905,9.108404 -0.28081,0.410922 -0.7122,0.670949 -1.18347,0.71336 -0.47128,0.04241 -0.93657,-0.136919 -1.27648,-0.491979 L 1.9288036,36.830706 -0.22378477,48.705939 10.765669,46.270747 8.203337,43.898901 c -0.55379,-0.616146 -0.61859,-1.572518 -0.15374,-2.269156 3.09419,-4.902366 8.794238,-10.001711 14.694648,-10.001711 0.21143,0 2.7318,-0.01193 3.68994,0 0.18239,0.0023 0.24493,-0.0016 0.40999,0 l 0,-1.715703 c -1.15282,-0.0159 -4.0292,-0.05534 -4.09993,-0.05534 z"
         id="path7062"
         style="fill:none;stroke:url(#linearGradient12026);stroke-width:1.86665022;stroke-linecap:round;stroke-linejoin:round;stroke-miterlimit:10;stroke-opacity:1;stroke-dasharray:none;stroke-dashoffset:0.69999992" />
    </g>
  </g>
</svg>

<?xml version="1.0" encoding="UTF-8" standalone="no"?>
<!-- Created with Inkscape (http://www.inkscape.org/) -->
<svg id="svg4840" xmlns="http://www.w3.org/2000/svg" height="22" width="22" version="1.0" xmlns:xlink="http://www.w3.org/1999/xlink">
 <defs id="defs4842">
  <radialGradient id="radialGradient5323" gradientUnits="userSpaceOnUse" cy="4.625" cx="62.625" gradientTransform="matrix(1 0 0 .34118 0 3.0471)" r="10.625">
   <stop id="stop8840" offset="0"/>
   <stop id="stop8842" style="stop-opacity:0" offset="1"/>
  </radialGradient>
  <linearGradient id="linearGradient5130" y2="45.359" gradientUnits="userSpaceOnUse" x2="19.177" gradientTransform="matrix(.49168 0 0 .49168 .69867 -.30183)" y1="13.48" x1="19.177">
   <stop id="stop5356" style="stop-color:#3f3f3f" offset="0"/>
   <stop id="stop5358" offset="1"/>
  </linearGradient>
  <linearGradient id="linearGradient5128" y2="45.348" gradientUnits="userSpaceOnUse" x2="28.771" gradientTransform="matrix(.49168 0 0 .49168 .69867 -.30183)" y1="12.918" x1="28.771">
   <stop id="stop37937" style="stop-color:#929292" offset="0"/>
   <stop id="stop37939" style="stop-color:#4a4a4a" offset="1"/>
  </linearGradient>
  <radialGradient id="radialGradient5350" gradientUnits="userSpaceOnUse" cy="10.045" cx="11.902" r="29.293">
   <stop id="stop2147" style="stop-color:#fffffd" offset="0"/>
   <stop id="stop2149" style="stop-color:#cbcbc9" offset="1"/>
  </radialGradient>
  <linearGradient id="linearGradient12026" y2="16.438" gradientUnits="userSpaceOnUse" x2="83.031" gradientTransform="matrix(1.64 0 0 1.771 -116.65 9.4899)" y1="16.406" x1="78.5">
   <stop id="stop7067" style="stop-color:#fff" offset="0"/>
   <stop id="stop7069" style="stop-color:#fff;stop-opacity:0" offset="1"/>
  </linearGradient>
  <linearGradient id="linearGradient12024" y2="12.093" gradientUnits="userSpaceOnUse" x2="83.203" gradientTransform="matrix(1.64 0 0 1.771 -116.65 9.4899)" y1="12.312" x1="78.312">
   <stop id="stop3749" style="stop-color:#494949" offset="0"/>
   <stop id="stop3751" style="stop-color:#888a85;stop-opacity:0" offset="1"/>
  </linearGradient>
  <linearGradient id="linearGradient12022" y2="13.875" gradientUnits="userSpaceOnUse" x2="83.219" gradientTransform="matrix(1.64 0 0 1.771 -116.65 9.4899)" y1="14.062" x1="80.625">
   <stop id="stop7091" style="stop-color:#eeeeec" offset="0"/>
   <stop id="stop7093" style="stop-color:#eeeeec;stop-opacity:0" offset="1"/>
  </linearGradient>
  <linearGradient id="linearGradient12020" y2="14.781" gradientUnits="userSpaceOnUse" x2="83.625" y1="15.75" x1="79.25">
   <stop id="stop7103" offset="0"/>
   <stop id="stop7105" style="stop-opacity:0" offset="1"/>
  </linearGradient>
 </defs>
 <g id="layer1" transform="translate(-.99993 -1)">
  <path id="path2774" style="opacity:.56044;fill-rule:evenodd;fill:url(#radialGradient5323)" d="m73.25 4.625a10.625 3.625 0 1 1 -21.25 0 10.625 3.625 0 1 1 21.25 0z" transform="matrix(1.0824 0 0 1.2907 -55.282 13.352)"/>
  <path id="path2555" style="stroke-linejoin:round;stroke:url(#linearGradient5130);stroke-linecap:round;stroke-width:.99995;fill:url(#linearGradient5128)" d="m12.492 1.5c-5.5191 0-9.9922 4.4731-9.9922 9.9922s4.4731 10.008 9.9922 10.008 10.008-4.4888 10.008-10.008c0-5.5191-4.4888-9.9922-10.008-9.9922z"/>
  <path id="path35549" style="fill:url(#radialGradient5350);fill-rule:evenodd" d="m31.161 16.911a14.911 14.911 0 1 1 -29.821 0 14.911 14.911 0 1 1 29.821 0z" transform="matrix(.57006 0 0 .57006 3.2365 1.8599)"/>
  <path id="path2308" style="fill-rule:evenodd;stroke:#727272;stroke-linecap:round;fill:#1f1f1f" d="m12.5 6.5v-1.569"/>
  <path id="path2312" style="stroke:#000;stroke-linecap:round;stroke-width:.5;fill:none" d="m12.195 11.714 5.401-5.4017"/>
  <path id="path2314" style="stroke:#000;stroke-linecap:round;stroke-width:.5;fill:none" d="m13.072 11.754-3.6082-3.608"/>
  <path id="path2316" style="fill-rule:evenodd;stroke:#f00;stroke-linecap:round;stroke-width:.5;fill:#f00" d="m12.314 11.435 6.151-1.6484"/>
  <path id="path5368" style="fill-rule:evenodd;stroke:#121212;stroke-linecap:round;fill:#121212" d="m12.5 18.285v-1.569"/>
  <path id="path5370" style="fill-rule:evenodd;stroke:#1f1f1f;stroke-linecap:round;fill:#1f1f1f" d="m17.5 11.5h1.569"/>
  <path id="path5372" style="fill-rule:evenodd;stroke:#5f5f5f;stroke-linecap:round;fill:#1f1f1f" d="m5.7331 11.5h1.5337"/>
  <g id="g12015" transform="matrix(.53737 0 0 .53407 2.9656 -11.862)">
   <path id="path11284" style="opacity:.1;fill:url(#linearGradient12020);fill-rule:evenodd" d="m85 9.9688c-4.3134 0-8.1444 1.9886-10.719 5.0625l-2.406-2.406a0.5313 0.5313 0 0 0 -0.90625 0.28125l-2 10.5a0.5313 0.5313 0 0 0 0.625 0.625l10.5-2a0.5313 0.5313 0 0 0 0.281 -0.906l-2.5-2.5c1.635-2.1625 4.2032-3.5938 7.125-3.5938 0.06101 0 0.66768-0.0067 1.25 0s1.2312 0.0319 1.2188 0.03125a0.5313 0.5313 0 0 0 0.5625 -0.53125v-4a0.5313 0.5313 0 0 0 -0.501 -0.531c-0.283-0.0105-2.309-0.0312-2.531-0.0312z" transform="matrix(1.64 0 0 1.771 -116.65 11.261)"/>
   <path id="path7007" style="stroke-linejoin:round;fill-rule:evenodd;stroke-dashoffset:0.7;stroke:url(#linearGradient12024);stroke-linecap:round;stroke-miterlimit:10;stroke-width:1.8667;fill:url(#linearGradient12022)" d="m22.744 28.086c-7.152 0-13.533 3.6569-17.578 9.3533l-4.5614-4.925-3.2799 18.596 17.219-3.543-4.6633-5.036c2.8004-4.4369 7.5168-9.132 12.864-9.132 0.27738 0 3.8261 0.03986 4.0999 0.05535v-5.3131c-0.2755-0.01099-3.822-0.05535-4.0999-0.05535z"/>
   <path id="path7062" style="stroke-linejoin:round;stroke-dashoffset:0.7;stroke:url(#linearGradient12026);stroke-linecap:round;stroke-miterlimit:10;stroke-width:1.8667;fill:none" d="m22.744 29.857c-6.6344 0-12.453 3.8352-16.197 9.1084-0.28081 0.41092-0.7122 0.67095-1.1835 0.71336-0.47128 0.04241-0.93657-0.13692-1.2765-0.49198l-2.1592-2.356-2.1526 11.875 10.99-2.435-2.5627-2.372c-0.55379-0.61615-0.61859-1.5725-0.15374-2.2692 3.0942-4.9024 8.7942-10.002 14.695-10.002 0.21143 0 2.7318-0.01193 3.6899 0 0.18239 0.0023 0.24493-0.0016 0.40999 0v-1.7157c-1.1528-0.0159-4.0292-0.05534-4.0999-0.05534z"/>
  </g>
 </g>
</svg>
